src/logo2.svg

<svg width="151" height="58" viewBox="0 0 151 58" fill="none" xmlns="http://www.w3.org/2000/svg">
<path d="M3.95455 17.9432L5.11364 11.0909H34.6193L33.4602 17.9432H22.875L18.2386 46H9.92045L14.5568 17.9432H3.95455ZM30.2259 46L34.5895 19.8182H42.6861L41.8849 24.5909H42.1577C42.919 22.8636 43.9134 21.5795 45.1406 20.7386C46.3679 19.8864 47.6974 19.4602 49.1293 19.4602C49.5156 19.4602 49.902 19.4886 50.2884 19.5455C50.6861 19.5909 51.0611 19.6591 51.4134 19.75L50.1861 27.0114C49.7997 26.8636 49.294 26.7557 48.669 26.6875C48.044 26.608 47.4759 26.5682 46.9645 26.5682C45.9759 26.5682 45.0554 26.7898 44.2031 27.233C43.3622 27.6648 42.6463 28.2727 42.0554 29.0568C41.4759 29.8295 41.0952 30.7386 40.9134 31.7841L38.5611 46H30.2259ZM56.7571 46.4432C55.098 46.4432 53.6662 46.1648 52.4616 45.608C51.2685 45.0398 50.3935 44.1818 49.8366 43.0341C49.2912 41.8864 49.1605 40.4545 49.4446 38.7386C49.6946 37.2841 50.1548 36.0625 50.8253 35.0739C51.5071 34.0739 52.3423 33.2614 53.331 32.6364C54.331 32.0114 55.4446 31.5341 56.6719 31.2045C57.8991 30.875 59.1832 30.6534 60.5241 30.5398C62.0241 30.4034 63.2401 30.2557 64.1719 30.0966C65.1151 29.9375 65.8196 29.7159 66.2855 29.4318C66.7514 29.1364 67.0355 28.7273 67.1378 28.2045V28.1193C67.2741 27.2443 67.0866 26.5682 66.5753 26.0909C66.0639 25.6136 65.2969 25.375 64.2741 25.375C63.1832 25.375 62.2514 25.6136 61.4787 26.0909C60.706 26.5682 60.1662 27.2273 59.8594 28.0682L52.223 27.7955C52.7003 26.2045 53.5185 24.7841 54.6776 23.5341C55.8366 22.2727 57.3082 21.2841 59.0923 20.5682C60.8878 19.8409 62.9616 19.4773 65.3139 19.4773C66.973 19.4773 68.473 19.6761 69.8139 20.0739C71.1548 20.4602 72.2855 21.0284 73.206 21.7784C74.1378 22.517 74.8026 23.4261 75.2003 24.5057C75.598 25.5852 75.6832 26.8182 75.456 28.2045L72.473 46H64.6321L65.2457 42.3523H65.0412C64.4276 43.2386 63.706 43.9886 62.8764 44.6023C62.0582 45.2159 61.1378 45.6761 60.1151 45.983C59.0923 46.2898 57.973 46.4432 56.7571 46.4432ZM60.2685 40.9886C61.1435 40.9886 61.973 40.8068 62.7571 40.4432C63.5412 40.0795 64.2003 39.5795 64.7344 38.9432C65.2798 38.2955 65.6264 37.5455 65.7741 36.6932L66.1662 34.2045C65.9276 34.3295 65.6264 34.4432 65.2628 34.5455C64.8991 34.6477 64.5128 34.7443 64.1037 34.8352C63.6946 34.9148 63.2741 34.9943 62.8423 35.0739C62.4219 35.142 62.0185 35.2045 61.6321 35.2614C60.8139 35.3864 60.1037 35.5795 59.5014 35.8409C58.8991 36.1023 58.4162 36.4432 58.0526 36.8636C57.7003 37.2727 57.4844 37.7614 57.4048 38.3295C57.2685 39.1818 57.4673 39.8409 58.0014 40.3068C58.5355 40.7614 59.2912 40.9886 60.2685 40.9886ZM75.9844 55.8182L82.0185 19.8182H90.2685L89.5355 24.3011H89.7912C90.2457 23.5057 90.848 22.7386 91.598 22C92.3594 21.2614 93.2741 20.6591 94.3423 20.1932C95.4105 19.7159 96.6321 19.4773 98.0071 19.4773C99.8253 19.4773 101.445 19.9545 102.865 20.9091C104.286 21.8636 105.32 23.3352 105.967 25.3239C106.615 27.3125 106.683 29.8466 106.172 32.9261C105.683 35.892 104.797 38.375 103.513 40.375C102.24 42.375 100.729 43.875 98.9787 44.875C97.2287 45.875 95.3935 46.375 93.473 46.375C92.1548 46.375 91.0412 46.1591 90.1321 45.7273C89.2344 45.2955 88.5241 44.7273 88.0014 44.0227C87.4787 43.3182 87.1151 42.5625 86.9105 41.7557H86.6719L84.3537 55.8182H75.9844ZM88.0014 32.9091C87.7741 34.3182 87.7628 35.5455 87.9673 36.5909C88.1719 37.6364 88.5866 38.4489 89.2116 39.0284C89.848 39.5966 90.6719 39.8807 91.6832 39.8807C92.706 39.8807 93.6151 39.5966 94.4105 39.0284C95.2173 38.4489 95.8935 37.6364 96.4389 36.5909C96.9844 35.5455 97.3821 34.3182 97.6321 32.9091C97.848 31.5 97.8537 30.2784 97.6491 29.2443C97.456 28.2102 97.0526 27.4091 96.4389 26.8409C95.8253 26.2727 95.0014 25.9886 93.9673 25.9886C92.956 25.9886 92.0355 26.267 91.206 26.8239C90.3878 27.3807 89.706 28.1761 89.1605 29.2102C88.6151 30.2443 88.2287 31.4773 88.0014 32.9091ZM122.497 11.0909L116.702 46H108.366L114.162 11.0909H122.497ZM134.178 46.4943C131.439 46.4943 129.166 45.9545 127.359 44.875C125.564 43.7841 124.303 42.233 123.575 40.2216C122.848 38.1989 122.717 35.7955 123.183 33.0114C123.638 30.3068 124.564 27.9432 125.962 25.9205C127.371 23.8864 129.143 22.3068 131.28 21.1818C133.416 20.0455 135.797 19.4773 138.422 19.4773C140.286 19.4773 141.939 19.767 143.382 20.3466C144.825 20.9261 146.018 21.7898 146.962 22.9375C147.905 24.0739 148.547 25.4716 148.888 27.1307C149.229 28.7898 149.217 30.6932 148.854 32.8409L148.53 34.9205H125.791L126.558 30.0795H141.558C141.695 29.1932 141.621 28.4034 141.337 27.7102C141.053 27.017 140.592 26.4773 139.956 26.0909C139.331 25.6932 138.564 25.4943 137.655 25.4943C136.734 25.4943 135.871 25.7102 135.064 26.142C134.268 26.5625 133.592 27.1307 133.036 27.8466C132.479 28.5625 132.115 29.3693 131.945 30.267L131.041 35.2273C130.859 36.3295 130.911 37.2727 131.195 38.0568C131.479 38.8409 131.967 39.4432 132.661 39.8636C133.354 40.2727 134.246 40.4773 135.337 40.4773C136.064 40.4773 136.746 40.3807 137.382 40.1875C138.018 39.983 138.587 39.6818 139.087 39.2841C139.598 38.875 140.013 38.3807 140.331 37.8011L147.933 38.0227C147.32 39.7386 146.371 41.233 145.087 42.5057C143.803 43.767 142.234 44.75 140.382 45.4545C138.541 46.1477 136.473 46.4943 134.178 46.4943Z" fill="url(#paint0_linear_2981_435)"/>
<defs>
<linearGradient id="paint0_linear_2981_435" x1="113.25" y1="3.88526" x2="106.728" y2="84.7675" gradientUnits="userSpaceOnUse">
<stop stop-color="#0538FF"/>
<stop offset="0.82" stop-color="#5799F7"/>
</linearGradient>
</defs>
</svg>

<svg xmlns="http://www.w3.org/2000/svg" width="151" height="58" fill="none"><path fill="url(#a)" d="m3.955 17.943 1.159-6.852h29.505l-1.159 6.852H22.875L18.239 46H9.92l4.637-28.057zM30.225 46l4.365-26.182h8.096l-.801 4.773h.273Q43.299 22 45.14 20.739q1.84-1.28 3.988-1.279.58 0 1.16.085.596.069 1.124.205l-1.227 7.261q-.58-.22-1.517-.323-.937-.12-1.704-.12-1.485 0-2.762.665a6.2 6.2 0 0 0-2.148 1.824q-.87 1.16-1.142 2.727L38.561 46zm26.532.443q-2.488 0-4.295-.835-1.79-.852-2.625-2.574-.82-1.722-.392-4.295.375-2.182 1.38-3.665a8.5 8.5 0 0 1 2.506-2.438 12.3 12.3 0 0 1 3.34-1.432 22 22 0 0 1 3.853-.664q2.25-.205 3.648-.443 1.415-.24 2.114-.665.698-.444.852-1.227v-.086q.204-1.312-.563-2.028t-2.3-.716q-1.638 0-2.796.716a3.8 3.8 0 0 0-1.62 1.977l-7.636-.273a10.7 10.7 0 0 1 2.455-4.26q1.738-1.892 4.414-2.967 2.694-1.09 6.222-1.09 2.489 0 4.5.596 2.011.579 3.392 1.704a6.14 6.14 0 0 1 1.994 2.728q.597 1.62.256 3.698L72.473 46h-7.84l.613-3.648h-.205a9.5 9.5 0 0 1-2.165 2.25 8.8 8.8 0 0 1-2.76 1.381q-1.535.46-3.359.46m3.512-5.454q1.312 0 2.488-.546a5.64 5.64 0 0 0 1.977-1.5 4.67 4.67 0 0 0 1.04-2.25l.392-2.488q-.358.187-.903.34-.546.155-1.16.29-.613.12-1.26.239-.632.102-1.21.187-1.23.188-2.132.58t-1.448 1.023q-.53.613-.648 1.466-.205 1.277.596 1.977.802.682 2.268.682m15.715 14.83 6.035-36h8.25l-.734 4.482h.256q.682-1.193 1.807-2.301 1.142-1.107 2.744-1.807 1.603-.716 3.665-.716 2.727 0 4.858 1.432 2.132 1.432 3.102 4.415.972 2.983.205 7.602-.733 4.449-2.659 7.449-1.91 3-4.534 4.5-2.625 1.5-5.506 1.5-1.977 0-3.34-.648-1.348-.647-2.132-1.704a6.4 6.4 0 0 1-1.09-2.267h-.24l-2.317 14.062zm12.017-22.91q-.34 2.114-.034 3.682t1.245 2.437q.954.853 2.471.853 1.535 0 2.727-.853 1.211-.87 2.029-2.437.818-1.569 1.193-3.682.324-2.113.017-3.665-.29-1.551-1.21-2.403-.921-.852-2.472-.852a4.85 4.85 0 0 0-2.761.835q-1.227.835-2.046 2.386-.817 1.55-1.159 3.7m34.496-21.818L116.702 46h-8.336l5.796-34.91zm11.681 35.403q-4.108 0-6.819-1.619-2.692-1.636-3.784-4.653-1.09-3.035-.392-7.21.682-4.058 2.779-7.091 2.113-3.052 5.318-4.74 3.204-1.704 7.142-1.704 2.796 0 4.96.87t3.58 2.59q1.415 1.706 1.926 4.194t-.034 5.71l-.324 2.08h-22.739l.767-4.841h15q.205-1.33-.221-2.37a3.32 3.32 0 0 0-1.381-1.62q-.937-.596-2.301-.596-1.381 0-2.591.648a6.2 6.2 0 0 0-2.028 1.705 5.6 5.6 0 0 0-1.091 2.42l-.904 4.96q-.272 1.654.154 2.83a3.4 3.4 0 0 0 1.466 1.807q1.04.613 2.676.613 1.09 0 2.045-.29a5.3 5.3 0 0 0 1.705-.903 4.9 4.9 0 0 0 1.244-1.483l7.602.222a11.84 11.84 0 0 1-2.846 4.483q-1.927 1.892-4.705 2.949-2.762 1.04-6.204 1.04"/><defs><linearGradient id="a" x1="113.25" x2="106.728" y1="3.885" y2="84.767" gradientUnits="userSpaceOnUse"><stop stop-color="#0538FF"/><stop offset=".82" stop-color="#5799F7"/></linearGradient></defs></svg>
